X: 13644
T: Follow Her Over The Border
R: slip jig
M: 9/8
K: Gmajor
|:e|ded B2 G B2 g|ded B2 d efg|ded B2 G B2 d|ABA A2 B c2:|
|:e|d2 g gfe d2 B|d2 g gfe d2 g|dgg g2 e d2 G|A2 A A2 B c2:|

